src/assets/icons/numbers,fancy,03.svg

<svg width="48" height="48" viewBox="0 0 48 48" fill="none" xmlns="http://www.w3.org/2000/svg">
<path d="M23.9272 39.3977C30.4613 39.3977 35.1346 35.804 35.1204 30.8324C35.1346 27.2102 32.8335 24.625 28.5579 24.0852V23.858C31.8107 23.2756 34.055 20.9744 34.0408 17.7074C34.055 13.1193 30.0352 9.51136 24.0124 9.51136C18.0465 9.51136 13.5579 13.0057 13.4727 18.0341H19.3675C19.4386 15.8182 21.4698 14.3835 23.984 14.3835C26.4698 14.3835 28.1317 15.8892 28.1175 18.0767C28.1317 20.3636 26.1857 21.9119 23.3874 21.9119H20.6744V26.429H23.3874C26.6829 26.429 28.7425 28.0767 28.7283 30.4205C28.7425 32.7358 26.7539 34.3267 23.9414 34.3267C21.2283 34.3267 19.1971 32.9062 19.0835 30.7756H12.8903C12.9897 35.8608 17.5352 39.3977 23.9272 39.3977Z" fill="black"/>
</svg>

<svg xmlns="http://www.w3.org/2000/svg" width="48" height="48" fill="none" viewBox="0 0 48 48">
  <path fill="#000" d="M23.927 39.398c6.534 0 11.208-3.594 11.193-8.566.015-3.622-2.286-6.207-6.562-6.747v-.227c3.253-.582 5.497-2.884 5.483-6.15.014-4.589-4.006-8.197-10.029-8.197-5.965 0-10.454 3.495-10.54 8.523h5.896c.07-2.216 2.102-3.65 4.616-3.65 2.486 0 4.148 1.505 4.133 3.693.015 2.287-1.931 3.835-4.73 3.835h-2.713v4.517h2.713c3.296 0 5.355 1.648 5.341 3.992.014 2.315-1.974 3.906-4.787 3.906-2.713 0-4.744-1.42-4.857-3.551H12.89c.1 5.085 4.645 8.622 11.037 8.622z"/>
</svg>
